svg/u1f1f3.svg

<svg viewBox="0 0 128 128" xmlns="http://www.w3.org/2000/svg">
  <path d="m108.54 15.2h-21.89c-1.31 0-2.36 1.06-2.36 2.36v62.91l-40.94-64.18c-0.43-0.68-1.18-1.09-1.99-1.09h-21.9c-1.3 0-2.36 1.06-2.36 2.36v100.97c0 1.3 1.06 2.36 2.36 2.36h21.9c1.3 0 2.37-1.06 2.37-2.36v-62.92l40.93 64.18c0.43 0.68 1.19 1.09 2 1.09h21.89c1.3 0 2.36-1.06 2.36-2.36v-100.96c-0.01-1.3-1.07-2.36-2.37-2.36z" fill="#40C0E7"/>
</svg>

<svg viewBox="0 0 128 128" xmlns="http://www.w3.org/2000/svg">
  <defs/>
  <path d="M108.54,15.2 L86.65,15.2 C85.34,15.2 84.29,16.26 84.29,17.56 L84.29,80.47 L43.35,16.29 C42.92,15.61 42.17,15.2 41.36,15.2 L19.46,15.2 C18.16,15.2 17.1,16.26 17.1,17.56 L17.1,118.53 C17.1,119.83 18.16,120.89 19.46,120.89 L41.36,120.89 C42.66,120.89 43.73,119.83 43.73,118.53 L43.73,55.61 L84.66,119.79 C85.09,120.47 85.85,120.88 86.66,120.88 L108.55,120.88 C109.85,120.88 110.91,119.82 110.91,118.52 L110.91,17.56 C110.9,16.26 109.84,15.2 108.54,15.2 Z" fill="#40C0E7"/>
</svg>
